X:1
T:The King's Park. a Strathspey
T:The King's Park. a Strathspey
T:James Porteous
C:James Porteous
L:1/8
Q:1/4=96
M:4/4
K:A
V:1 treble 
V:1
"^Slowish" A,>EC>E A,<E C2 | (A,>E) (A/B/c/)A/ A<FF<A | A,>EC>E A,<E C2 | %3
 (A,>E) (A/B/c/)A/ A<aa<c' | A,>EC>E A,<E C2 | (A,>E) (A/B/c/)A/ A<FF<A | A,>EC>E A,<E C2 | %7
 (A,>E) (A/B/c/)A/{B} A2 A || c/d/ | e<cc<e{c} d2 (df) |{f} e>c d/c/B/A/ c(BB)c/d/ | %11
 e<cc<e{c} d2 (df) | edcB Aefg | a>ef<a e<a Tc2 | d<bc<a B>cdf | (3efg (3agf (3efe (3dcB | %16
 Aaec A<EA<c |] %17

